X: 24447
T: Lucien's
R: reel
M: 4/4
K: Bminor
|:FB~B2 FEDE|FB~B2 dBcA|FB~B2 FEDE|1 (3Bcd fa bfed:|2 (3Bcd fa bgec||
|:d2ad bdad|d2fa bgec|1 d2ad bdad|fabg ecAc:|2 df~f2 af~f2|fggf edcA||

